X: 1469
T: The Skibbereen Lasses
M:C|
L:1/8
N:"collected by Beamish"
B:O'Neill's 1469
Z:"Transcribed by Bob Safranek, rjs@gsp.org"
K:A
e2 (cA)   cdef  | gedc BcdB | e2 (cA)     cdef    | gedB  TcA  A2 |
e2 (cA)   cdef  | gedc BcdB | cAcd        e^def   | gedB  TcA  A2 ||
 cAce   a2 (ef) | gedc BcdB | eA (3.A.A.A a2 (ef) | gedB T(cA) A2 |
 cAce   a2 (ef) | gedc BcdB | A2 ((3Bcd)  eaaf    | gedB  TcA  A2 |]


